qtOfs/res/icons/filesave.svg

<?xml version="1.0" encoding="UTF-8" standalone="no"?>
<!-- Created with Inkscape (http://www.inkscape.org/) -->
<svg
   xmlns:dc="http://purl.org/dc/elements/1.1/"
   xmlns:cc="http://creativecommons.org/ns#"
   xmlns:rdf="http://www.w3.org/1999/02/22-rdf-syntax-ns#"
   xmlns:svg="http://www.w3.org/2000/svg"
   xmlns="http://www.w3.org/2000/svg"
   xmlns:sodipodi="http://sodipodi.sourceforge.net/DTD/sodipodi-0.dtd"
   xmlns:inkscape="http://www.inkscape.org/namespaces/inkscape"
   version="1.0"
   width="48"
   height="48"
   viewBox="0 0 81.264 85.622"
   id="svg165"
   sodipodi:version="0.32"
   inkscape:version="0.46"
   sodipodi:docname="filesave.svg"
   inkscape:output_extension="org.inkscape.output.svg.inkscape">
  <metadata
     id="metadata7556">
    <rdf:RDF>
      <cc:Work
         rdf:about="">
        <dc:format>image/svg+xml</dc:format>
        <dc:type
           rdf:resource="http://purl.org/dc/dcmitype/StillImage" />
      </cc:Work>
    </rdf:RDF>
  </metadata>
  <sodipodi:namedview
     inkscape:window-height="669"
     inkscape:window-width="664"
     inkscape:pageshadow="2"
     inkscape:pageopacity="0.0"
     guidetolerance="10.0"
     gridtolerance="10.0"
     objecttolerance="10.0"
     borderopacity="1.0"
     bordercolor="#666666"
     pagecolor="#ffffff"
     id="base"
     showgrid="false"
     inkscape:zoom="2.40625"
     inkscape:cx="24"
     inkscape:cy="51.542512"
     inkscape:window-x="69"
     inkscape:window-y="69"
     inkscape:current-layer="g240" />
  <defs
     id="defs273">
    <inkscape:perspective
       sodipodi:type="inkscape:persp3d"
       inkscape:vp_x="0 : 24 : 1"
       inkscape:vp_y="0 : 1000 : 0"
       inkscape:vp_z="48 : 24 : 1"
       inkscape:persp3d-origin="24 : 16 : 1"
       id="perspective7558" />
  </defs>
  <g
     id="switch169">
    <foreignObject
       id="foreignObject171"
       content="structured text"
       height="1"
       width="1"
       y="0"
       x="0"
       requiredExtensions="http://ns.adobe.com/AdobeIllustrator/10.0/" />
    <g
       id="g173">
      <g
         id="Layer_1">
        <g
           id="g176"
           transform="matrix(0.9,0,0,0.9,4.0632,4.2810612)">
          <linearGradient
             x1="78.370102"
             y1="-21.482901"
             x2="-3.1294"
             y2="115.5164"
             id="XMLID_7_"
             gradientUnits="userSpaceOnUse">
            <stop
               style="stop-color:#bdcdd4;stop-opacity:1"
               offset="0"
               id="stop179" />
            <stop
               style="stop-color:#70838b;stop-opacity:1"
               offset="0.4061"
               id="stop181" />
            <stop
               style="stop-color:#2a3e48;stop-opacity:1"
               offset="0.81199998"
               id="stop183" />
            <stop
               style="stop-color:#0e232e;stop-opacity:1"
               offset="1"
               id="stop185" />
          </linearGradient>
          <path
             d="M 81.264,81.508 C 79.202,83.561 76.561,85.623 76.449,85.621 C 74.598,85.59 31.847,85.594 11.47,85.594 C 8.842,81.92 3.934,76.521 0,71.528 C 0.006,51.277 0.017,15.184 0.017,2.374 C 3.193,1.363 6.388,0.002 6.489,0.002 C 9.67,0.002 78.7,-0.002 81.205,0.002 C 81.205,3.643 81.264,62.966 81.264,81.508 z"
             style="fill:url(#XMLID_7_)"
             id="path187" />
          <radialGradient
             cx="40.616199"
             cy="41.5308"
             r="45.555"
             fx="40.616199"
             fy="41.5308"
             id="XMLID_8_"
             gradientUnits="userSpaceOnUse"
             gradientTransform="matrix(1,-0.2981,0,1,0,12.9769)">
            <stop
               style="stop-color:#ffffff;stop-opacity:1"
               offset="0.0225"
               id="stop190" />
            <stop
               style="stop-color:#f9f9f9;stop-opacity:1"
               offset="0.1062"
               id="stop192" />
            <stop
               style="stop-color:#e8e8e8;stop-opacity:1"
               offset="0.2194"
               id="stop194" />
            <stop
               style="stop-color:#cbcbcb;stop-opacity:1"
               offset="0.3493"
               id="stop196" />
            <stop
               style="stop-color:#a4a4a4;stop-opacity:1"
               offset="0.49070001"
               id="stop198" />
            <stop
               style="stop-color:#8a8a8a;stop-opacity:1"
               offset="0.57300001"
               id="stop200" />
            <stop
               style="stop-color:#676767;stop-opacity:1"
               offset="0.77939999"
               id="stop202" />
            <stop
               style="stop-color:#3c3c3c;stop-opacity:1"
               offset="1"
               id="stop204" />
          </radialGradient>
          <polygon
             points="79.44,80.528 76.419,83.139 9.908,77.821 1.792,2.864 6.45,1.172 79.395,1.094 79.44,80.528 "
             style="fill:url(#XMLID_8_)"
             id="polygon206" />
          <radialGradient
             cx="73.704102"
             cy="-1.7739"
             r="90.823898"
             fx="73.704102"
             fy="-1.7739"
             id="XMLID_9_"
             gradientUnits="userSpaceOnUse"
             gradientTransform="matrix(1,-0.2981,0,1,0,12.9769)">
            <stop
               style="stop-color:#f3f3f3;stop-opacity:1"
               offset="0.0225"
               id="stop209" />
            <stop
               style="stop-color:#ededed;stop-opacity:1"
               offset="0.1034"
               id="stop211" />
            <stop
               style="stop-color:#dcdcdc;stop-opacity:1"
               offset="0.21269999"
               id="stop213" />
            <stop
               style="stop-color:#c0c0c0;stop-opacity:1"
               offset="0.33829999"
               id="stop215" />
            <stop
               style="stop-color:#999999;stop-opacity:1"
               offset="0.47490001"
               id="stop217" />
            <stop
               style="stop-color:#787878;stop-opacity:1"
               offset="0.57300001"
               id="stop219" />
            <stop
               style="stop-color:#545454;stop-opacity:1"
               offset="0.77630001"
               id="stop221" />
            <stop
               style="stop-color:#292929;stop-opacity:1"
               offset="1"
               id="stop223" />
          </radialGradient>
          <polygon
             points="76.301,83.194 12.505,83.272 1.872,70.26 1.802,2.863 76.32,2.762 76.301,83.194 "
             style="fill:url(#XMLID_9_)"
             id="polygon225" />
        </g>
        <linearGradient
           x1="143.54491"
           y1="-24.5562"
           x2="22.305"
           y2="31.4014"
           id="XMLID_10_"
           gradientUnits="userSpaceOnUse"
           gradientTransform="matrix(0.9,-0.26829,0,0.9,4.0632,15.960271)">
          <stop
             style="stop-color:#858585;stop-opacity:1"
             offset="0.1067"
             id="stop228" />
          <stop
             style="stop-color:#898989;stop-opacity:1"
             offset="0.1429"
             id="stop230" />
          <stop
             style="stop-color:#b6b6b6;stop-opacity:1"
             offset="0.54799998"
             id="stop232" />
          <stop
             style="stop-color:#c7c7c7;stop-opacity:1"
             offset="0.75279999"
             id="stop234" />
          <stop
             style="stop-color:#cfcfcf;stop-opacity:1"
             offset="1"
             id="stop236" />
        </linearGradient>
        <path
           d="M 61.8027,6.8379612 C 61.8027,6.8379612 61.7649,41.604061 61.7649,43.665061 C 61.4481,44.305861 60.7902,44.871061 60.7902,44.871061 L 20.0481,6.8676612 L 24.7245,5.2836612 L 66.5655,5.2728612 L 61.8027,6.8379612 z"
           style="fill:url(#XMLID_10_)"
           id="path238" />
        <g
           id="g240">
          <path
             d="M 61.125,44.507461 C 61.125,46.805161 20.0958,47.023861 20.0958,44.333761 C 20.0958,41.682361 20.094,6.8478612 20.094,6.8478612 L 61.125,6.8775612 C 61.125,6.8766612 61.125,41.283661 61.125,44.507461 z"
             style="fill:#ffffff"
             id="path242" />
          <g
             id="g244"
             transform="matrix(0.9,0,0,0.9,4.0632,4.2810612)">
            <line
               x1="21.275999"
               y1="22.049999"
               x2="59.73"
               y2="21.871"
               id="line246"
               style="fill:none;stroke:#cccccc;stroke-width:2;stroke-linecap:round" />
            <line
               x1="21.275999"
               y1="30.334"
               x2="59.73"
               y2="30.371"
               id="line248"
               style="fill:none;stroke:#cccccc;stroke-width:2;stroke-linecap:round" />
            <line
               x1="21.275999"
               y1="38.000999"
               x2="59.73"
               y2="38.042999"
               id="line250"
               style="fill:none;stroke:#cccccc;stroke-width:2;stroke-linecap:round" />
          </g>
          <linearGradient
             x1="43.1768"
             y1="8.9468002"
             x2="43.1768"
             y2="1.7823"
             id="XMLID_11_"
             gradientUnits="userSpaceOnUse">
            <stop
               style="stop-color:#00bfff;stop-opacity:1"
               offset="0.7191"
               id="stop253" />
            <stop
               style="stop-color:#005c94;stop-opacity:1"
               offset="0.9382"
               id="stop255" />
          </linearGradient>
          <polygon
             points="60.771,12.947 20.599,12.952 20.559,2.838 25.87,1.031 65.795,1.04 60.771,2.767 60.771,12.947 "
             style="fill:#0000ff"
             id="polygon257"
             transform="matrix(0.9,0,0,0.9,4.0632,4.2810612)" />
        </g>
        <path
           d="M 59.6733,79.231261 L 59.2584,79.797361 L 22.5069,79.245661 L 21.6447,58.287361 L 22.4916,57.796861 L 59.6814,57.778861 L 59.6733,79.231261 z M 38.4045,60.134161 C 35.0682,60.111661 30.2676,60.234061 27.6,60.297961 C 27.6,62.456161 27.6,77.524861 27.6,77.524861 L 38.4045,77.528461 C 38.4045,77.527561 38.4045,62.197861 38.4045,60.134161 z"
           style="fill:#ffffff"
           id="path259" />
        <linearGradient
           x1="37.527302"
           y1="80.015099"
           x2="44.235199"
           y2="59.370499"
           id="XMLID_12_"
           gradientUnits="userSpaceOnUse"
           gradientTransform="matrix(0.9,-0.26829,0,0.9,4.0632,15.960271)">
          <stop
             style="stop-color:#9e9e9e;stop-opacity:1"
             offset="0"
             id="stop262" />
          <stop
             style="stop-color:#afafaf;stop-opacity:1"
             offset="0.271"
             id="stop264" />
          <stop
             style="stop-color:#dbdbdb;stop-opacity:1"
             offset="0.80599999"
             id="stop266" />
          <stop
             style="stop-color:#ededed;stop-opacity:1"
             offset="1"
             id="stop268" />
        </linearGradient>
        <path
           d="M 59.2656,79.888261 L 21.6375,79.960261 L 21.6249,58.312561 L 59.2647,58.298161 L 59.2647,79.888261 L 59.2656,79.888261 z M 37.7295,60.980161 C 34.3932,60.956761 29.8185,61.013461 27.1185,61.013461 C 27.1185,63.171661 27.1185,78.109861 27.1185,78.109861 L 37.7295,78.113461 C 37.7295,78.113461 37.7295,63.043861 37.7295,60.980161 z"
           style="fill:url(#XMLID_12_)"
           id="path270" />
      </g>
    </g>
  </g>
</svg>

<svg width="48" xmlns="http://www.w3.org/2000/svg" height="48" viewBox="0 0 81.264 85.622">
<defs>
<linearGradient gradientTransform="matrix(.9 -.26829 0 .9 4.0632 15.96027)" id="XMLID_12_" y1="80.015" x1="37.527" y2="59.37" x2="44.235" gradientUnits="userSpaceOnUse">
<stop offset="0" stop-color="#9e9e9e"/>
<stop offset=".271" stop-color="#afafaf"/>
<stop offset=".806" stop-color="#dbdbdb"/>
<stop offset="1" stop-color="#ededed"/>
</linearGradient>
<linearGradient id="XMLID_7_" y1="-21.483" x1="78.37" y2="115.516" x2="-3.129" gradientUnits="userSpaceOnUse">
<stop offset="0" stop-color="#bdcdd4"/>
<stop offset=".406" stop-color="#70838b"/>
<stop offset=".812" stop-color="#2a3e48"/>
<stop offset="1" stop-color="#0e232e"/>
</linearGradient>
<linearGradient gradientTransform="matrix(.9 -.26829 0 .9 4.0632 15.96027)" id="XMLID_10_" y1="-24.556" x1="143.545" y2="31.401" x2="22.305" gradientUnits="userSpaceOnUse">
<stop offset=".107" stop-color="#858585"/>
<stop offset=".143" stop-color="#898989"/>
<stop offset=".548" stop-color="#b6b6b6"/>
<stop offset=".753" stop-color="#c7c7c7"/>
<stop offset="1" stop-color="#cfcfcf"/>
</linearGradient>
<radialGradient cx="40.616" cy="41.531" gradientTransform="matrix(1 -.2981 0 1 0 12.9769)" r="45.555" id="XMLID_8_" gradientUnits="userSpaceOnUse">
<stop offset=".022" stop-color="#fff"/>
<stop offset=".106" stop-color="#f9f9f9"/>
<stop offset=".219" stop-color="#e8e8e8"/>
<stop offset=".349" stop-color="#cbcbcb"/>
<stop offset=".491" stop-color="#a4a4a4"/>
<stop offset=".573" stop-color="#8a8a8a"/>
<stop offset=".779" stop-color="#676767"/>
<stop offset="1" stop-color="#3c3c3c"/>
</radialGradient>
<radialGradient cx="73.704" cy="-1.774" gradientTransform="matrix(1 -.2981 0 1 0 12.9769)" r="90.824" id="XMLID_9_" gradientUnits="userSpaceOnUse">
<stop offset=".022" stop-color="#f3f3f3"/>
<stop offset=".103" stop-color="#ededed"/>
<stop offset=".213" stop-color="#dcdcdc"/>
<stop offset=".338" stop-color="#c0c0c0"/>
<stop offset=".475" stop-color="#999"/>
<stop offset=".573" stop-color="#787878"/>
<stop offset=".776" stop-color="#545454"/>
<stop offset="1" stop-color="#292929"/>
</radialGradient>
</defs>
<g transform="matrix(.9 0 0 .9 4.0632 4.28106)">
<path fill="url(#XMLID_7_)" d="m81.264,81.508c-2.062,2.053-4.703,4.115-4.815,4.113-1.851-.031-44.602-.027-64.979-.027-2.628-3.674-7.536-9.073-11.47-14.066 .006-20.251 .017-56.344 .017-69.154 3.176-1.011 6.371-2.372 6.472-2.372 3.181,0 72.211-.004 74.716,0 0,3.641 .059,62.964 .059,81.506z"/>
<path fill="url(#XMLID_8_)" d="m79.44,80.528-3.021,2.611-66.511-5.318-8.116-74.957 4.658-1.692 72.945-.078 .045,79.434z"/>
<path fill="url(#XMLID_9_)" d="m76.301,83.194-63.796,.078-10.633-13.012-.07-67.397 74.518-.101-.019,80.432z"/>
</g>
<path fill="url(#XMLID_10_)" d="m61.8027,6.838c0,0-.0378,34.7661-.0378,36.8271-.3168,.6408-.9747,1.206-.9747,1.206l-40.7421-38.0034 4.6764-1.584 41.841-.0108-4.7628,1.5651z"/>
<path fill="#fff" d="m61.125,44.5075c0,2.2977-41.0292,2.5164-41.0292-.1737 0-2.6514-.0018-37.4859-.0018-37.4859l41.031,.0297c0-.0009 0,34.4061 0,37.6299z"/>
<g fill="none" stroke="#ccc" stroke-linecap="round" stroke-width="2" transform="matrix(.9 0 0 .9 4.0632 4.28106)">
<path d="m21.276,22.05 38.454-.179"/>
<path d="m21.276,30.334 38.454,.037"/>
<path d="m21.276,38.001 38.454,.042"/>
</g>
<path fill="#00f" d="m60.771,12.947-40.172,.005-.04-10.114 5.311-1.807 39.925,.009-5.024,1.727 0,10.18z" transform="matrix(.9 0 0 .9 4.0632 4.28106)"/>
<path fill="#fff" d="m59.6733,79.2313l-.4149,.5661-36.7515-.5517-.8622-20.9583 .8469-.4905 37.1898-.018-.0081,21.4524zm-21.2688-19.0971c-3.3363-.0225-8.1369,.0999-10.8045,.1638 0,2.1582 0,17.2269 0,17.2269l10.8045,.0036c0-.0009 0-15.3306 0-17.3943z"/>
<path fill="url(#XMLID_12_)" d="m59.2656,79.8883l-37.6281,.072-.0126-21.6477 37.6398-.0144 0,21.5901h.0009zm-21.5361-18.9081c-3.3363-.0234-7.911,.0333-10.611,.0333 0,2.1582 0,17.0964 0,17.0964l10.611,.0036c0,0 0-15.0696 0-17.1333z"/>
</svg>
